X:18574
T:Weel May The Keel Row
S:Gall and Inglis, Select Songs of Scotland
M:2/4
L:1/8
K:G
D|B>B GB |c2 Ac |B>B GB |AF DD|BB  GB |c2 Ac |B>G A>F|G3:|
c|B>d dg |e2 dc |B>G GB |AF Dc|B>d d<g|e2 dc |B>G AF |G3:|
z|B2  G>B|c2 A>c|B2  G>B|AF D2|B2  G>B|c2 A>c|B>G A>F|G3:|


